tools/download-figma-icons/icons/solid/smarthome.svg

<svg width="24" height="24" viewBox="0 0 24 24" fill="none" xmlns="http://www.w3.org/2000/svg">
<path fill-rule="evenodd" clip-rule="evenodd" d="M12.094 0.00242953C11.954 0.0137175 11.8219 0.0689406 11.7163 0.160051L1.72628 8.80006C1.58155 8.92594 1.49893 9.10871 1.50004 9.3014V23.3419C1.50004 23.7053 1.79472 24 2.15818 24H22.1388C22.5023 24 22.797 23.7053 22.797 23.3419L22.797 9.30053C22.7981 9.10871 22.7155 8.92594 22.5713 8.80052L21.2297 7.64455L21.1769 7.52947V3.09121C21.1769 2.72775 20.8822 2.43311 20.5188 2.43307L16.7377 2.43307C16.4414 2.43128 16.1804 2.62772 16.1002 2.91296L16.0355 3.14288L15.8547 2.98679L12.5808 0.16011C12.4464 0.0440577 12.2709 -0.012804 12.094 0.00242953ZM12.1485 10.5418C9.73836 10.5418 7.46386 11.4595 5.74938 13.0795C5.56264 13.2371 5.47858 13.4852 5.53106 13.7238C5.58354 13.9625 5.76392 14.1524 5.99956 14.2172C6.23519 14.2819 6.48729 14.2108 6.66086 14.0259C8.12804 12.6392 10.0706 11.858 12.1485 11.858C14.2264 11.858 16.169 12.6392 17.6427 14.0324C17.8097 14.2108 18.0618 14.2819 18.2974 14.2172C18.5331 14.1524 18.7135 13.9625 18.7659 13.7238C18.8184 13.4852 18.7344 13.2371 18.5413 13.0738C16.8332 11.4594 14.5587 10.5418 12.1485 10.5418ZM12.1485 12.955C10.3481 12.955 8.64223 13.6624 7.36154 14.9016C7.17521 15.0603 7.09237 15.3094 7.14649 15.5481C7.20061 15.7869 7.38274 15.9758 7.61932 16.0387C7.85589 16.1016 8.10783 16.028 8.27962 15.8412C9.30468 14.8491 10.6779 14.2881 12.1485 14.2881C13.6191 14.2881 14.9923 14.8491 16.0237 15.8477C16.1892 16.028 16.4411 16.1016 16.6777 16.0387C16.9143 15.9758 17.0964 15.7869 17.1505 15.5481C17.2046 15.3094 17.1218 15.0603 16.9283 14.8951C15.6547 13.6624 13.9489 12.955 12.1485 12.955ZM12.1485 15.3935C10.9356 15.3935 9.79568 15.8508 8.98188 16.6655C8.85798 16.789 8.78833 16.9567 8.78833 17.1317C8.78833 17.3066 8.85798 17.4743 8.98206 17.598L11.6823 20.2983C11.8058 20.4222 11.9736 20.4918 12.1485 20.4918C12.3234 20.4918 12.4912 20.4222 12.6149 20.2981L15.3151 17.5978C15.439 17.4743 15.5087 17.3066 15.5087 17.1317C15.5087 16.9567 15.439 16.789 15.3149 16.6652C14.5013 15.8508 13.3614 15.3935 12.1485 15.3935ZM12.1485 16.8617C12.6803 16.8617 13.1541 17.0234 13.5829 17.2498L12.1485 18.6842L10.7141 17.2498C11.1429 17.0234 11.6167 16.8617 12.1485 16.8617Z" fill="black"/>
</svg>

<svg xmlns="http://www.w3.org/2000/svg" width="24" height="24" fill="none" viewBox="0 0 24 24"><path fill="currentColor" fill-rule="evenodd" d="M12.094.002a.66.66 0 0 0-.378.158L1.726 8.8a.66.66 0 0 0-.226.501v14.04c0 .364.295.659.658.659h19.98a.66.66 0 0 0 .659-.658V9.3a.66.66 0 0 0-.226-.5L21.23 7.645l-.053-.116V3.091a.66.66 0 0 0-.658-.658h-3.781a.66.66 0 0 0-.638.48l-.065.23-.18-.156L12.58.16a.66.66 0 0 0-.487-.158m.055 10.54a9.3 9.3 0 0 0-6.4 2.537.658.658 0 1 0 .912.947 7.95 7.95 0 0 1 5.488-2.168c2.077 0 4.02.781 5.494 2.174a.658.658 0 1 0 .898-.958 9.3 9.3 0 0 0-6.392-2.532m0 2.413c-1.8 0-3.507.707-4.787 1.947a.658.658 0 1 0 .918.94 5.54 5.54 0 0 1 3.869-1.554c1.47 0 2.843.561 3.875 1.56a.658.658 0 1 0 .904-.953 6.87 6.87 0 0 0-4.78-1.94m0 2.438c-1.213 0-2.353.458-3.167 1.273a.66.66 0 0 0 0 .932l2.7 2.7a.66.66 0 0 0 .933 0l2.7-2.7a.66.66 0 0 0 0-.933c-.814-.814-1.954-1.271-3.166-1.271m0 1.469c.531 0 1.005.161 1.434.388l-1.434 1.434-1.435-1.434c.429-.227.903-.388 1.435-.388" clip-rule="evenodd"/></svg>
